X:1
T:Det koster ej for megen Strid
T:(Salmer og Aandelige Sange, no.8)
T:Carl Nielsen (FS83/8)
T:H.A. Brorson
T:Det koster ej for megen Strid (Salmer og Aandelige Sange, no.8)
T:Copyright (c) 2006 by Choral Public Domain Library (http://www.cpdl.org). Edition may be freely distributed, duplicated, performed or recorded.
T:Copyright (c) 2006 by Choral Public Domain Library (http://www.cpdl.org). Edition may be freely distributed, duplicated, performed or recorded.
T:Copyright (c) 2006 by Choral Public Domain Library (http://www.cpdl.org). Edition may be freely distributed, duplicated, performed or recorded.
T:Copyright (c) 2006 by Choral Public Domain Library (http://www.cpdl.org). Edition may be freely distributed, duplicated, performed or recorded.
C:Carl Nielsen (FS83/8)
Z:H.A. Brorson
Z:Copyright (c) 2006 by Choral Public Domain Library (http://www.cpdl.org).
Z:Edition may be freely distributed, duplicated, performed or recorded.
%%score [ 1 2 3 4 ]
L:1/8
M:3/2
K:Ab
V:1 treble nm="S." snm="S."
V:2 treble nm="A." snm="A."
V:3 treble-8 transpose=-12 nm="T." snm="T."
V:4 bass nm="B." snm="B."
V:1
 E2 A2 B2 | c2 c2 c4 B4 | d8 c4 | B2 A2 G4 F4 | G2 A2 B4 c4 | F4 !fermata!E2 A2 B2 c2 | %6
w: Det ko- ster|ej for me- gen|Strid, en|him- mel- sin- det|Kri- sten- Sjæl at|bli- ve; er vor Na-|
 d6 e2 c2 B2 | (A4 G4) A4 | !fermata!B8 B4 | c2 A2 G4 E4 | F6 G2 A2 B2 | G4 F4 E4 | A6 B2 c2 d2 | %13
w: tur end ik- ke|mild _ og|blid, naar|den i Kri- sti|Død sig hen skal|gi- ve, saa|gi- ver Gud den|
 e6 B2 c2 A2 | F8 c4 | B2 B2 A8- | !fermata!A4 z2 |] %17
w: gud- hen- giv- ne|Aand dog|O- ver- haand.|_|
V:2
 E2 E2 E2 | E2 F2 E4 E4 | F8 E4 | E2 C2 E4 E4 | D2 C2 F4 E4 | (E2 D2) !fermata!C2 E2 E2 E2 | %6
w: Det ko- ster|ej for me- gen|Strid, en|him- mel- sin- det|Kri- sten- Sjæl at|bli- * ve; er vor Na-|
 F4 F4 E2 E2 | (E2 D2 E4) E4 | !fermata!F8 G4 | G2 F2 =D4 C4 | =D4 E4 F2 F2 | =E4 C4 _E4 | %12
w: tur end ik- ke|mild _ _ og|blid, naar|den i Kri- sti|Død sig hen skal|gi- ve, saa|
 E4 F4 A2 A2 | A4 G4 E2 E2 | (E4 D4) E4 | E2 E2 (E4 D4 | !fermata!C4) z2 |] %17
w: gi- ver Gud den|gud- hen- giv- ne|Aand _ dog|O- ver- haand. _|_|
V:3
 c2 c2 B2 | A2 A2 A4 G4 | (A4 B6) A2 | G2 A2 c4 A4 | B2 A2 F4 G4 | A4 !fermata!A2 c2 B2 A2 | %6
w: Det ko- ster|ej for me- gen|Strid, _ en|him- mel- sin- det|Kri- sten- Sjæl at|bli- ve; er vor Na-|
 A4 B4 G2 G2 | (A4 B4) e4 | (e4 !fermata!=d4) e4 | e2 c2 =B4 c4 | A4 _B4 d2 d2 | c4 A4 B4 | %12
w: tur end ik- ke|mild _ og|blid, _ naar|den i Kri- sti|Død sig hen skal|gi- ve, saa|
 c4 d4 A2 A2 | B4 e4 A2 A2 | (A4 B6) A2 | A2 G2 (F8 | !fermata!E4) z2 |] %17
w: gi- ver Gud den|gud- hen- giv- ne|Aand _ dog|O- ver- haand.|_|
V:4
 A,2 A,2 G,2 | A,2 F,2 C,4 E,4 | (D,4 B,,4) (C,2 D,2) | E,2 F,2 C,4 (D,2 C,2) | B,,2 F,2 D,4 E,4 | %5
w: Det ko- ster|ej for me- gen|Strid, _ en _|him- mel- sin- det _|Kri- sten- Sjæl at|
 F,4 !fermata!A,2 A,2 G,2 A,2 | D,4 B,,4 E,2 E,2 | (F,4 E,4) C,4 | !fermata!B,,8 E,4 | %9
w: bli- ve; er vor Na-|tur end ik- ke|mild _ og|blid, naar|
 C,2 F,2 G,4 A,4 | F,4 E,4 D,2 B,,2 | C,4 F,4 G,4 | A,4 D,4 F,2 F,2 | %13
w: den i Kri- sti|Død sig hen skal|gi- ve, saa|gi- ver Gud den|
 E,4 E,4"^1.2.3.4.5.6." C,2"^Det koster ej for megen Strid,en himmelsindet Kristen-Sjæl at blive;er vor Natur end ikke mild og blid,naar den i Kristi Død sig hen skal give,saa giver Gud den gudhengivne Aanddog Overhaand.Gør som et Barn og læg dig nedi Jesu Skød og naadefulde Arme,han skal dig, som sit Barn, med Kærlighedda ved sit Frelserhjerte gennemvarme.Mon det er svart, naar man er ham saa nær,at faa ham kær?Gud intet ondt dig gøre vil,men al din Ve, den gør din egen Vilje;byd Gud dit arme, bange Hjerte til,han skal det snart med Trøst og Glæde stille,giv Gud din Vilje, al din Vilje snart,saa er det klart.I Troen søg dit Hjertes Ro,naar Trængsels Nat og Mørkhed dig vil dækko,din Fader kan du altid sikkert tro,lad dig kun ingen Vind og Fare skrække!Ser surt det ud og mørkt i hver en Krog,saa tro kun dog!Saa skal dit Lys igen opgaa,og Solen skinne efter Nattens Skygge,hvad du har tro’t, skal synlig for dig staa,paa Gud du kan frimodig altid bygge!En Kristen i en salig Tilstand staar,ihvor det gaar.Op, op min Aand i Haab og Tro,saa sød en Gud dig fuldt at overgive!Gak ind, min Sjæl, og nyd den søde Ro,din Jesus skal din Trang saa let fordrive;med al din Nød dig i hans Arme kast,han holder fast!                    Hans Adolph Brorson (1694-1764)" C,2 | %14
w: gud- hen- giv- ne|
 (D,4 B,,4) (C,2 D,2) | E,2 E,2 A,,8- | !fermata!A,,4 z2 |] %17
w: Aand _ dog _|O- ver- haand.|_|

